img/icon-arr2.svg

<svg width="30" height="35" viewBox="0 0 30 35" fill="none" xmlns="http://www.w3.org/2000/svg">
<path d="M13.2448 13.2816C15.4073 15.287 17.5115 17.239 19.5485 19.2594C21.4153 21.111 23.1929 23.0532 25.0421 24.923C26.1293 26.0224 27.2819 27.0561 28.3998 28.1249C28.6248 28.3401 28.8452 28.5656 29.0345 28.8122C29.4216 29.3163 29.4764 29.6984 28.6552 29.7111C28.5481 29.7129 28.3564 29.8055 28.3492 29.8715C28.2627 30.6679 27.5359 31.4178 28.1849 32.2819C28.2927 32.4255 28.1788 32.7379 28.1673 32.9724C27.9239 32.9088 27.6699 32.8704 27.4406 32.7735C27.265 32.6993 27.1223 32.5487 26.9615 32.4371C26.8545 32.3628 26.7413 32.2973 26.6309 32.2279C26.581 32.3629 26.5207 32.4951 26.4834 32.6334C26.392 32.9725 26.422 33.4381 26.2066 33.6333C25.335 34.4231 24.739 34.1741 24.451 32.9734C24.1896 31.8837 23.957 31.8159 23.1041 32.5556C22.8825 32.7478 22.6327 32.9135 22.3767 33.0566C22.2003 33.1553 21.9909 33.1942 21.7962 33.2598C21.8291 32.9905 21.8605 32.7209 21.898 32.4521C21.9006 32.4336 21.9556 32.4274 21.9723 32.4049C22.323 31.9356 23.0121 31.3953 22.9359 31.0115C22.8364 30.51 22.1428 30.1187 21.6841 29.7034C20.1039 28.2724 18.4826 26.8859 16.936 25.4196C14.0968 22.7282 11.2934 19.9984 8.48978 17.2694C7.86751 16.6638 7.3684 16.9829 6.88286 17.412C5.51292 18.6225 4.17734 19.873 2.78454 21.0557C2.47776 21.3162 1.97121 21.5203 1.5896 21.4753C0.427227 21.3382 0.482003 21.2538 0.688293 20.0921C0.867664 19.0824 0.830893 18.0359 0.921065 17.0084C0.962133 16.5404 1.03388 16.0651 1.16979 15.6167C1.54976 14.3624 1.78622 13.1264 1.52896 11.7917C1.42872 11.2718 1.83807 10.6718 1.87089 10.1005C1.96085 8.53823 1.99227 6.97183 2.00473 5.40688C2.00785 5.02168 1.85177 4.63532 1.76509 4.25043C1.70934 4.00239 1.54167 3.72363 1.60606 3.5148C1.83172 2.78163 2.12187 2.07782 1.63317 1.33093C1.61592 1.30452 2.11135 0.76875 2.29023 0.809538C3.22647 1.02334 4.13718 1.34839 5.05781 1.6314C6.69208 2.13382 8.32617 2.63645 9.96213 3.13304C10.3479 3.25019 10.7398 3.41923 11.1309 3.42368C11.4293 3.42693 11.8888 3.28873 11.9993 3.07157C12.2452 2.58802 12.457 2.74919 12.4887 3.07257C12.5476 3.6709 12.9372 3.74673 13.3696 3.86199C15.0611 4.31325 15.579 5.54364 14.7011 7.11829C13.929 8.50311 13.0556 9.83281 12.3234 11.2375C12.0432 11.7752 11.6301 12.5584 12.7518 12.8309C12.9121 12.8699 13.0233 13.1107 13.2448 13.2816ZM26.2055 28.0072C25.9834 27.7924 25.7325 27.6003 25.5451 27.3583C25.0678 26.7417 24.6617 26.0637 24.1432 25.4866C23.7958 25.1001 23.2306 24.9097 22.8903 24.5191C20.8454 22.1721 18.1912 20.554 15.876 18.5327C15.724 18.4 15.5014 18.3491 15.3116 18.2602C15.433 18.4038 15.5404 18.5628 15.6779 18.6886C17.6203 20.4642 19.5713 22.2304 21.5108 24.0094C22.6055 25.0136 23.6703 26.051 24.774 27.0448C25.2076 27.4352 25.7104 27.7476 26.158 28.1838C26.3839 28.3005 26.6063 28.425 26.8393 28.5255C26.871 28.5392 26.9543 28.4329 27.0137 28.3824C26.7946 28.3023 26.5758 28.2213 26.356 28.143C26.2994 28.1228 26.2398 28.1111 26.2055 28.0072ZM11.8027 18.6635C13.2278 20.1151 14.6542 21.565 16.077 23.0189C16.6902 23.6456 17.2391 24.3509 17.9163 24.8963C19.1569 25.8957 20.4673 26.8083 21.7591 27.7422C21.9364 27.8703 22.1746 27.9137 22.3846 27.9963C22.2772 27.8338 22.1852 27.6578 22.0585 27.5124C21.9113 27.3438 21.7377 27.1977 21.5688 27.0494C20.3262 25.9584 19.0543 24.8989 17.8454 23.7713C16.5682 22.5795 15.3462 21.3277 14.1079 20.094C13.0479 19.0381 12.0207 17.9478 10.9352 16.9194C10.4928 16.5003 9.93856 16.1989 9.42368 15.8617C9.37315 15.8285 9.23472 15.91 9.15334 15.9633C9.13791 15.9735 9.17782 16.1247 9.22812 16.1728C10.0616 16.9694 10.9009 17.7599 11.8027 18.6635ZM9.40412 9.0375C9.84151 8.45651 10.2763 7.87345 10.7182 7.29602C10.839 7.13813 10.9816 6.99692 11.1141 6.84798C10.8674 6.89317 10.5305 6.8507 10.3886 6.99811C9.49371 7.92679 8.628 8.8852 7.78318 9.86054C7.43699 10.2603 7.15538 10.7193 6.87144 11.1686C6.81049 11.2652 6.86655 11.4364 6.86877 11.5732C6.97146 11.5124 7.09502 11.4714 7.17356 11.3876C7.88449 10.6301 8.58751 9.86512 9.40412 9.0375ZM8.04352 6.40349C7.95895 6.40299 7.82524 6.36742 7.79683 6.40733C7.06231 7.43809 6.33393 8.47332 5.62226 9.52005C5.56194 9.6088 5.62671 9.78352 5.63326 9.91827C5.76923 9.87971 5.95057 9.88397 6.03327 9.79518C6.35851 9.44617 6.63932 9.05546 6.96131 8.70311C7.57103 8.03592 7.79961 6.97439 8.88937 6.78812C8.8936 6.78741 8.88824 6.46027 8.83814 6.44475C8.62036 6.37717 8.3843 6.36871 8.04352 6.40349ZM2.84227 19.8559C3.58652 19.125 4.33952 18.4025 5.06361 17.6519C5.15058 17.5618 5.0812 17.319 5.08425 17.147C4.88589 17.1694 4.5444 17.1361 4.51099 17.2225C4.05348 18.4054 2.78258 18.7677 2.08619 19.6986C1.96215 19.8646 1.82457 20.0205 1.69321 20.1809C1.93487 20.1548 2.17949 20.1436 2.417 20.0961C2.52872 20.0737 2.62678 19.9814 2.84227 19.8559ZM5.15089 14.0443C4.76227 14.5601 4.36728 15.0713 3.99282 15.5971C3.94543 15.6636 4.00522 15.8072 4.01546 15.9149C4.12545 15.8944 4.28218 15.9139 4.33851 15.8473C5.06405 14.9897 5.78346 14.1261 6.4757 13.2413C6.53615 13.1639 6.39351 12.9258 6.34518 12.7623C6.21957 12.8324 6.06819 12.8778 5.9734 12.9775C5.70261 13.2624 5.45495 13.5696 5.15089 14.0443ZM3.39258 11.4929C3.40271 11.2749 3.41295 11.057 3.42307 10.839C3.24362 10.9879 2.95292 11.1076 2.90508 11.2907C2.7505 11.8817 2.68005 12.4954 2.60206 13.1035C2.59836 13.1328 2.86769 13.2662 2.94814 13.2259C3.66579 12.867 3.3534 12.2266 3.39258 11.4929ZM12.1052 7.01897C12.0318 7.14977 11.9584 7.28057 11.8849 7.41149C11.9947 7.37848 12.1512 7.38101 12.2069 7.30689C12.6076 6.77492 13.0015 6.23621 13.3617 5.67628C13.4254 5.57723 13.373 5.31753 13.2815 5.22627C13.185 5.13011 12.9529 5.08292 12.8248 5.13247C12.692 5.18394 12.5675 5.36187 12.5187 5.51061C12.3754 5.94766 12.2717 6.39764 12.1052 7.01897ZM3.24824 16.9387C3.17871 16.7625 3.1091 16.5863 3.03949 16.41C2.88952 16.5154 2.67195 16.588 2.60197 16.7324C2.37832 17.1939 2.20932 17.6823 2.0194 18.1603C2.1525 18.2119 2.38156 18.3349 2.40422 18.3042C2.68721 17.9208 2.94025 17.5152 3.24824 16.9387ZM25.6939 33.0711C25.8143 32.7384 26.0175 32.4078 26.027 32.0723C26.0336 31.8362 25.7894 31.5838 25.6244 31.3636C25.5976 31.3278 25.3127 31.3969 25.2951 31.4594C25.1401 32.0084 24.9148 32.5832 25.6939 33.0711ZM12.2087 15.7463C12.0905 15.3866 10.7296 14.3639 10.4317 14.4252C10.3678 14.4382 10.2634 14.561 10.2748 14.5835C10.3179 14.6692 10.3893 14.7529 10.4707 14.8043C11.01 15.1447 11.5546 15.4765 12.2087 15.7463ZM26.926 29.5242C26.8567 29.7829 26.7439 30.0409 26.7402 30.3002C26.7388 30.3995 26.9869 30.5014 27.1213 30.6021C27.2203 30.3317 27.3578 30.0665 27.3962 29.7879C27.4087 29.6963 27.1642 29.5698 26.926 29.5242ZM9.47338 5.27362C9.33072 5.25731 9.18791 5.24109 9.04522 5.2249C9.1181 5.28543 9.19529 5.40241 9.2632 5.39708C9.59615 5.37055 9.92944 5.32588 10.2572 5.25952C10.546 5.20109 10.8275 5.10572 11.1122 5.02661C10.7339 5.01119 10.3546 4.97494 9.97753 4.99176C9.84382 4.99768 9.71549 5.13273 9.47338 5.27362ZM4.939 6.42265C4.90657 6.68966 4.87424 6.95671 4.84192 7.22376C5.05749 6.97392 5.27305 6.72408 5.48861 6.47424C5.32113 6.39821 5.15365 6.32218 4.939 6.42265ZM12.2528 8.57151C12.2681 8.79627 12.2835 9.02096 12.2988 9.24572C12.4664 9.03905 12.6341 8.83241 12.8018 8.62577C12.6345 8.54894 12.4673 8.47199 12.2528 8.57151ZM4.02632 4.57052C4.24715 4.5414 4.4679 4.51214 4.68874 4.48302C4.58977 4.35565 4.49065 4.22837 4.39154 4.10108C4.24848 4.22037 4.10545 4.33954 4.02632 4.57052ZM10.9928 13.6239C11.176 13.716 11.3589 13.8081 11.542 13.9001C11.4167 13.6975 11.2913 13.4947 11.1661 13.2921C11.05 13.387 10.9337 13.482 10.9928 13.6239ZM3.17817 8.7877C3.22934 8.89598 3.28064 9.00417 3.33178 9.11257C3.38051 9.00594 3.48743 8.88423 3.46515 8.79588C3.42338 8.62929 3.30705 8.48188 3.22181 8.32654C3.18595 8.44303 3.14998 8.55948 3.17817 8.7877ZM22.9618 29.5968C23.251 29.7688 23.5402 29.9409 23.8294 30.113C23.8557 30.0598 23.9061 29.9609 23.9044 29.9599C23.6298 29.8127 23.3514 29.6725 22.9618 29.5968ZM3.25025 6.06472C3.24932 5.95143 3.26048 5.83633 3.24478 5.72524C3.21489 5.51294 3.16966 5.30269 3.13075 5.09167C3.10256 5.31956 3.06937 5.54697 3.04874 5.77541C3.04165 5.85478 3.06537 5.93686 3.25025 6.06472ZM8.74499 12.5488C8.72424 12.6851 8.70334 12.8214 8.68259 12.9577C8.79824 12.9152 8.91392 12.8726 9.02956 12.83C8.97185 12.7147 8.91403 12.5994 8.74499 12.5488Z" fill="white"/>
</svg>

<svg width="30" height="35" fill="none" xmlns="http://www.w3.org/2000/svg"><path d="M13.245 13.282c2.162 2.005 4.267 3.957 6.304 5.977 1.866 1.852 3.644 3.794 5.493 5.664 1.087 1.1 2.24 2.133 3.358 3.202.225.215.445.44.635.687.387.504.441.886-.38.9-.107 0-.299.093-.306.16-.086.796-.813 1.546-.164 2.41.108.144-.006.456-.018.69-.243-.063-.497-.102-.726-.199-.176-.074-.319-.224-.48-.336-.106-.074-.22-.14-.33-.21-.05.136-.11.268-.148.406-.091.34-.061.805-.276 1-.872.79-1.468.541-1.756-.66-.261-1.09-.494-1.157-1.347-.417a4.349 4.349 0 0 1-.727.5c-.177.1-.386.138-.58.204.032-.27.063-.54.101-.808.003-.018.058-.025.074-.047.351-.47 1.04-1.01.964-1.393-.1-.502-.793-.893-1.252-1.309-1.58-1.43-3.201-2.817-4.748-4.283-2.84-2.692-5.643-5.422-8.446-8.15-.622-.606-1.122-.287-1.607.142-1.37 1.21-2.706 2.461-4.098 3.644-.307.26-.814.464-1.195.42-1.163-.138-1.108-.222-.902-1.384.18-1.01.143-2.056.233-3.084a6.9 6.9 0 0 1 .249-1.391c.38-1.255.616-2.49.359-3.825-.1-.52.31-1.12.342-1.691a94.79 94.79 0 0 0 .134-4.694c.003-.385-.153-.772-.24-1.157-.056-.248-.223-.526-.159-.735.226-.733.516-1.437.027-2.184-.017-.026.478-.562.657-.521.936.213 1.847.538 2.768.821 1.634.503 3.268 1.005 4.904 1.502.386.117.778.286 1.169.29.298.004.758-.134.868-.351.246-.484.458-.323.49 0 .059.599.448.675.88.79 1.692.451 2.21 1.682 1.332 3.256-.772 1.385-1.645 2.715-2.378 4.12-.28.537-.693 1.32.429 1.593.16.039.271.28.493.45Zm12.96 14.725c-.222-.215-.472-.407-.66-.649-.477-.616-.883-1.294-1.402-1.871-.347-.387-.912-.577-1.253-.968-2.045-2.347-4.699-3.965-7.014-5.986-.152-.133-.375-.184-.564-.273.121.144.228.303.366.429 1.942 1.775 3.893 3.541 5.833 5.32 1.095 1.005 2.16 2.042 3.263 3.036.434.39.936.703 1.384 1.139.226.116.448.241.681.341.032.014.115-.092.175-.143l-.658-.239c-.057-.02-.116-.032-.15-.136Zm-14.402-9.344c1.425 1.452 2.851 2.902 4.274 4.356.613.627 1.162 1.332 1.84 1.877 1.24 1 2.55 1.912 3.842 2.846.177.128.416.172.626.254-.108-.162-.2-.338-.327-.484-.147-.168-.32-.314-.49-.463-1.242-1.09-2.514-2.15-3.723-3.278-1.277-1.192-2.499-2.443-3.737-3.677-1.06-1.056-2.087-2.146-3.173-3.175-.442-.419-.996-.72-1.511-1.057-.05-.034-.19.048-.27.101-.016.01.024.162.074.21.834.796 1.673 1.587 2.575 2.49ZM9.404 9.037c.438-.58.872-1.164 1.314-1.741.121-.158.264-.3.396-.448-.247.045-.584.003-.725.15a72.985 72.985 0 0 0-2.606 2.863c-.346.4-.628.858-.912 1.308-.06.096-.004.267-.002.404.102-.06.226-.102.305-.185.71-.758 1.414-1.523 2.23-2.35Zm-1.36-2.634c-.085 0-.219-.036-.247.004A172.399 172.399 0 0 0 5.622 9.52c-.06.089.005.264.011.398.136-.038.318-.034.4-.123.326-.349.606-.74.928-1.092.61-.667.839-1.729 1.928-1.915.005 0 0-.328-.05-.343-.219-.068-.455-.076-.795-.042ZM2.842 19.856c.745-.731 1.498-1.454 2.222-2.204.087-.09.017-.333.02-.505-.198.022-.54-.01-.573.076-.458 1.182-1.728 1.545-2.425 2.476-.124.166-.261.321-.393.482.242-.026.486-.037.724-.085.112-.022.21-.115.425-.24Zm2.309-5.812c-.389.516-.784 1.027-1.158 1.553-.048.067.012.21.022.318.11-.02.267-.001.324-.068a88.068 88.068 0 0 0 2.137-2.606c.06-.077-.082-.315-.13-.479-.126.07-.278.116-.373.215-.27.285-.518.593-.822 1.067Zm-1.758-2.551.03-.654c-.18.149-.47.269-.518.452-.154.59-.225 1.204-.303 1.813-.004.029.266.162.346.122.718-.359.405-1 .445-1.733Zm8.712-4.474-.22.392c.11-.033.266-.03.322-.104.4-.532.794-1.07 1.155-1.63.063-.1.011-.36-.08-.45a.514.514 0 0 0-.457-.095c-.133.052-.257.23-.306.379-.144.437-.247.887-.414 1.508Zm-8.857 9.92-.209-.529c-.15.105-.367.178-.437.322-.224.462-.393.95-.583 1.428.133.052.363.175.385.144.283-.383.536-.789.844-1.365ZM25.694 33.07c.12-.333.323-.663.333-.999.007-.236-.238-.488-.403-.708-.026-.036-.311.033-.329.095-.155.55-.38 1.124.399 1.612ZM12.209 15.746c-.118-.36-1.48-1.382-1.777-1.32-.064.012-.169.135-.157.158.043.085.114.169.196.22.539.34 1.084.672 1.738.942Zm14.717 13.778c-.07.259-.182.517-.186.776-.001.1.247.201.381.302.1-.27.237-.535.275-.814.013-.092-.232-.218-.47-.264ZM9.473 5.274l-.428-.05c.073.061.15.178.218.173.333-.026.666-.071.994-.137.289-.059.57-.154.855-.233-.378-.016-.757-.052-1.134-.035-.134.006-.263.14-.505.282ZM4.94 6.423l-.097.8.647-.749c-.168-.076-.335-.152-.55-.051Zm7.314 2.149.046.674.503-.62c-.168-.077-.335-.154-.55-.054ZM4.026 4.57l.663-.088-.297-.382c-.144.12-.287.239-.366.47Zm6.967 9.053.549.276-.376-.608c-.116.095-.232.19-.173.332ZM3.178 8.788l.154.325c.049-.107.155-.229.133-.317-.042-.167-.158-.314-.243-.47-.036.117-.072.233-.044.462Zm19.784 20.809.867.516c.027-.053.077-.152.075-.153-.274-.147-.553-.288-.942-.363ZM3.25 6.065c0-.114.01-.229-.005-.34-.03-.212-.075-.422-.114-.633-.028.228-.062.455-.082.683-.007.08.016.162.201.29Zm5.495 6.484-.062.409.347-.128c-.058-.115-.116-.23-.285-.281Z" fill="#fff"/></svg>
